!!!!SEGMENT: pl-wtm--r-1507_stefani-jozef--zaczynajcie-basem-grajki.krn
!!!cenid: 18xx:2234
!!!COM: Stefani, J贸zef
!!!COM-rismID: pe30024097
!!!CDT: 1800/04/16-1876/03/19
!!!CNT: Polish
!!!OTL: Zaczynajcie basem grajki
!!!PDT:
!!!AGN:
!!!SMS-siglum: PL-Wtm
!!!SMS-shelfmark: R 1507
!!!SMS-shelfwork: W
!!!SMS-variant:
!!!SMS-altvar:
!!!NIFC-rismSourceID: 1001120252
!!!NIFC-islandoraID: pl-wtm:26131
!!!URL-pdf-islandora: https://repozytorium.nifc.pl/islandora/object/pl-wtm%3A26131/datastream/PDF/view
!!!URL-scan: https://polish.musicsources.pl/pl/lokalizacje/galeria/rekopisy/6316 @EN{Scan on Polish Music Sources Website} @PL{Skany w portalu Dziedzictwo Muzyki Polskiej w otwartym dostpie}
!!!ONB-nifc:
!!!AIN: 1 piano 1 vox
!!!key:
**kern	**kern	**dynam	**kern	**text	**text	**text
*part2	*part2	*part2	*part1	*part1	*part1	*part1
*staff3	*staff2	*	*staff1	*staff1	*staff1	*staff1
*Ipiano	*Ipiano	*	*Ivox	*	*	*
*I"[Piano]	*I"[Piano]	*	*I"[piew]	*	*	*
*>[A,B,B,C,B,D,E,F,E,A,B,G]	*>[A,B,B,C,B,D,E,F,E,A,B,G]	*	*>[A,B,B,C,B,D,E,F,E,A,B,G]	*	*	*
*>A	*>A	*	*>A	*	*	*
*clefF4	*clefG2	*	*clefF4	*	*	*
*k[]	*k[]	*	*k[]	*	*	*
*C:	*C:	*	*C:	*	*	*
*M3/4	*M3/4	*	*M3/4	*	*	*
=1	=1	=1	=1	=1	=1	=1
*2\right	*2\right	*	*2\right	*	*	*
!LO:TX:t=P:problem=4\, 8\, 16\, 32\middle or right&colon; global	!LO:TX:t=P:problem=2\right&colon; global	!	!	!	!	!
!	!LO:TX:a:B:t=Polonez	!	!	!	!	!
(32qqG/LLL	(32qqgg/LLL	f	.	.	.	.
32qqA/	32qqaa/	.	.	.	.	.
32qqB/JJJ	32qqbb/JJJ	.	.	.	.	.
8c\L)	8ccc\L)	.	2.r	.	.	.
16r	16r	.	.	.	.	.
32C'\LL 32E	32ccc'\LL 32eee	.	.	.	.	.
32C'\JJJ 32E	32ccc'\JJJ 32eee	.	.	.	.	.
(16C\LL 16E	(16ccc\LL 16eee	.	.	.	.	.
16D\) 16F	16bb\) 16ddd	.	.	.	.	.
16E'\ 16G	16aa'\ 16ccc	.	.	.	.	.
16F'\JJ 16A	16gg'\JJ 16bb	.	.	.	.	.
16G'\LL 16B	16ff'\LL 16aa	.	.	.	.	.
16A'\ 16c	16ee'\ 16gg	.	.	.	.	.
16B'\ 16d	16dd'\ 16ff	.	.	.	.	.
16c'\JJ 16e	16cc'\JJ 16ee	.	.	.	.	.
=2	=2	=2	=2	=2	=2	=2
8G\L 8B 8d	8b\L 8dd	.	2.r	.	.	.
16r	16r	.	.	.	.	.
32AA-X\LL 32A-X	32f\LL 32dd 32ff	.	.	.	.	.
32AA-\JJJ 32A-	32f\JJJ 32dd 32ff	.	.	.	.	.
*	*tremolo	*	*	*	*	*
8GG\L 8G	8f\L 8dd 8ff	.	.	.	.	.
8GG#X\ 8G#X	8f\ 8dd 8ff	.	.	.	.	.
8AAn\ 8An	8f\ 8dd 8ff	.	.	.	.	.
8BB\J 8B	8f\J 8dd 8ff	.	.	.	.	.
*	*Xtremolo	*	*	*	*	*
!!LO:LB:g=original
=3	=3	=3	=3	=3	=3	=3
8C\L	8e\L 8cc 8ee	.	2.r	.	.	.
16r	16r	.	.	.	.	.
32C'\LL 32E	32ccc'\LL 32eee	.	.	.	.	.
32C'\JJJ 32E	32ccc'\JJJ 32eee	.	.	.	.	.
(16C\LL 16E	(16ccc\LL 16eee	.	.	.	.	.
16D\) 16F	16bb\) 16ddd	.	.	.	.	.
16E'\ 16G	16aa'\ 16ccc	.	.	.	.	.
16F'\JJ 16A	16gg'\JJ 16bb	.	.	.	.	.
16G'\LL 16B	16ff'\LL 16aa	.	.	.	.	.
16A'\ 16c	16ee'\ 16gg	.	.	.	.	.
16B'\ 16d	16dd'\ 16ff	.	.	.	.	.
16c'\JJ 16e	16cc'\JJ 16ee	.	.	.	.	.
=4	=4	=4	=4	=4	=4	=4
8G\L 8d	8b\L 8dd	.	2.r	.	.	.
16r	16r	.	.	.	.	.
32AA-X\LL 32A-X	32f\LL 32dd 32ff	.	.	.	.	.
32AA-\JJJ 32A-	32f\JJJ 32dd 32ff	.	.	.	.	.
*	*tremolo	*	*	*	*	*
8GG\L 8G	8f\L 8dd 8ff	.	.	.	.	.
8GG#X\ 8G#X	8f\ 8dd 8ff	.	.	.	.	.
8AAn\ 8An	8f\ 8dd 8ff	.	.	.	.	.
8BB\J 8B	8f\J 8dd 8ff	.	.	.	.	.
*	*Xtremolo	*	*	*	*	*
=5	=5	=5	=5	=5	=5	=5
8C\L 8c	16e'/LL 16cc 16ee	.	2.r	.	.	.
.	(16cc/	.	.	.	.	.
8G\J 8c 8e	16b/	.	.	.	.	.
.	16cc/JJ)	.	.	.	.	.
*tremolo	*	*	*	*	*	*
8G\L 8c 8e	16ee'\LL	.	.	.	.	.
.	(16cc\	.	.	.	.	.
8G\ 8c 8e	16b\	.	.	.	.	.
.	16cc\JJ)	.	.	.	.	.
8G\ 8c 8e	16ee'\LL	.	.	.	.	.
.	(16cc\	.	.	.	.	.
8G\J 8c 8e	16b\	.	.	.	.	.
.	16cc\JJ)	.	.	.	.	.
!!LO:LB:g=original
=6	=6	=6	=6	=6	=6	=6
8AA\L 8A	16ff#X'\LL	.	2.r	.	.	.
.	(16cc\	.	.	.	.	.
8D\J 8A 8c	16b\	.	.	.	.	.
.	16cc\JJ)	.	.	.	.	.
*	*rep	*	*	*	*	*
8D\L 8A 8c	16ff#'\LL	.	.	.	.	.
.	(16cc\	.	.	.	.	.
8D\ 8A 8c	16b\	.	.	.	.	.
.	16cc\JJ)	.	.	.	.	.
*	*Xrep	*	*	*	*	*
*	*rep	*	*	*	*	*
8D\ 8A 8c	16ff#'\LL	.	.	.	.	.
.	(16cc\	.	.	.	.	.
8D\J 8A 8c	16b\	.	.	.	.	.
.	16cc\JJ)	.	.	.	.	.
*Xtremolo	*Xrep	*	*	*	*	*
=7	=7	=7	=7	=7	=7	=7
4.G\ 4.B	4.gg\	.	2.r	.	.	.
(16F#X\LL	(16ff#X\LL	.	.	.	.	.
16G\JJ)	16gg\JJ)	.	.	.	.	.
8D/L	8dd\L	.	.	.	.	.
8BB/J	8b\J	.	.	.	.	.
=8	=8	=8	=8	=8	=8	=8
8GG'\L	8g'/L	.	2.r	.	.	.
(16F#X\L	(16f#X/L	.	.	.	.	.
16A\JJ)	16a/JJ)	.	.	.	.	.
8G'\L	8g'/L	.	.	.	.	.
(16F#\L	(16f#/L	.	.	.	.	.
16A\JJ)	16a/JJ)	.	.	.	.	.
8G\	8g/	.	.	.	.	.
(16G\LL	(16g/LL	.	.	.	.	.
32A\L	32a/L	.	.	.	.	.
!LO:TX:a:i:t=V&colon; S&colon;	!	!	!	!	!	!
32B\JJJ)	32b/JJJ)	.	.	.	.	.
!!LO:PB:g=original
=9||	=9||	=9||	=9||	=9||	=9||	=9||
*>B	*>B	*	*>B	*	*	*
!	!	!	!LO:TX:a:i:t=Solo.	!	!	!
4.c\	4.cc\	.	4.c\	1.) Za-	2.) Da-	3.) Ze
8G'\L	8g/L	.	8G\	-czy-	-lej	tak
8E'\	8e/	.	8E\	-naj-	smia-	dzie-
8C'\J	8c/J	.	8C\	-cie	-o	-wcz,
=10	=10	=10	=10	=10	=10	=10
8BB/L	8B'/L	.	8BB/	ba-	do	pat-
8D/J	8d'/J	.	8D/	-sem	dziew-	-rzysz
(4A\	(4a/	.	4A\	grai-	-cz-	skro-
8G\)	8g/)	.	8G\	-ki,	-cia,	-mnie,
8r	(16g/LL	.	8r	.	.	.
.	32a/L	.	.	.	.	.
.	32b/JJJ)	.	.	.	.	.
=11	=11	=11	=11	=11	=11	=11
*	*	*	*^	*	*	*
!	!	!	!LO:TX:a:i:t=Choro.	!	!	!	!
8C\ 8E 8G 8c	8cc/L	.	4.E/ 4.c	4.C\	I	Zak-	Ser-
16CC/LL 16C	16e/L 16g 16cc	.	.	.	.	.	.
16CC/JJ 16C	16e/JJ 16g 16cc	.	.	.	.	.	.
8CC/L 8C	8e/L 8g 8cc	.	.	.	.	.	.
8CC/ 8C	8g/ 8cc 8ee	.	8G/ 8e	8C\	wy	-rzesz	-ce
8DD/ 8D	8g/ 8b 8dd	.	8F/ 8d	8D\	skrzy-	og-	ma-
8EE/J 8E	8g/J 8cc	.	8G/ 8c	8E\	-pki	-nia	-o
=12	=12	=12	=12	=12	=12	=12	=12
8DD/L 8D	8d/L 8g 8b	.	8G/ 8B	8D\	kie-	pod-	nie
8DD/J 8D	8d/J 8f#X 8a	.	8F#X/ 8A	8D\	-by	-k贸-	wys-
4DD/ 4D	4c/ 4d 4f# 4a	.	4F#/ 4A	4D\	czaj-	-wecz-	-ko-
8GG\ 8G	8B/ 8d 8g	.	8G/	8G\	-ki,	-k,	-czy;
(16G\LL	(<16g/LL	.	8rA	8rAA	.	.	.
32A\L	32a/L	.	.	.	.	.	.
32B\JJJ	32b/JJJ	.	.	.	.	.	.
*	*	*	*v	*v	*	*	*
!!LO:LB:g=original
=13	=13	=13	=13	=13	=13	=13
!	!	!	!LO:TX:a:i:t=Solo	!	!	!
4.c'\)	4.cc\)	.	4.c\	W ba-	P贸-	Daj
8G'\L	8g/L	.	8G\	-sach	-ki	mi
8E'\	8e/	.	8E\	ja-	iesz-	r-
8C'\J	8c/J	.	8C\	-ka	-cze	-k,
=14	=14	=14	=14	=14	=14	=14
8BB'/L	8B'/L	.	8BB/	jest	jest	oh
8D'/J	8d'/J	.	8D\	po-	do	p贸jd藕
(4A\	(4a/	.	4A\	-wa-	wzi-	do
8G\)	8g/)	.	8G\	-ga,	-cia	mnie,
8r	(16g/LL	.	8r	.	.	.
.	16g#X/JJ)	.	.	.	.	.
=15	=15	=15	=15	=15	=15	=15
*	*	*	*^	*	*	*
!	!	!	!LO:TX:a:i:t=Choro	!	!	!	!
8FF/L 8F	8a/L	.	4.A/	4.F\	A	Niech	Niech
16FF/L 16F	16c/L 16f 16a	.	.	.	.	.	.
16FF/JJ 16F	16c/JJ 16f 16a	.	.	.	.	.	.
8FF/ 8F	8c/ 8f 8a	.	.	.	.	.	.
8DD/L 8D	8a/L 8dd 8ff	.	8A/ 8f	8D\	przy	oz-	mi-
8EE/ 8E	8g/ 8cc#X 8ee	.	8G/ 8e	8E\	skrzy-	-do-	-o-
8FF/J 8F	8f/J 8a 8dd	.	8A/ 8d	8F\	-pkach	-bi	-ci
=16	=16	=16	=16	=16	=16	=16	=16
8GG\L 8G	8e'/L 8g 8cc	.	8E/ 8c	8G\	ruch	twe	spoj-
8GG\J 8G	(16g/L 16ee	.	16G/LL 16e	8GG\	si	gniaz-	-rz
.	16f/JJ) 16dd	.	16F/JJ 16d	.	.	.	.
4GG\ 4G	(4f/ 4b 4dd	.	4F/ 4d	4GG\	wzma-	-decz-	w o-
8C\ 8c	8e/) 8cc	.	8E/ 8c	8C\	-ga	-ko.	-czy.
8r	8r	.	8r	8r	.	.	.
!!LO:LB:g=original
=17:|!	=17:|!;	=17:|!	=17:|!;	=17:|!	=17:|!	=17:|!	=17:|!
*>C	*>C	*	*>C	*	*	*	*
8GG/L 8G	8d/L 8g 8b	f	8G/ 8B	8GG\	la	.	.
*	*	*	*	*	*ij	*	*
16GG/L 16G	16d/L 16g 16b	.	(16G/LL 16B	16GG\	la	.	.
16GG/JJ 16G	16d/JJ 16g 16a#X	.	16G/JJ) 16A#X	16GG\	la	.	.
8GG/ 8G	8d/ 8g 8b	.	8G/ 8B	8GG\	la	.	.
8BB\L 8B	8d/L 8g 8dd	.	8G/ 8d	8BB\	la	.	.
8AA\ 8A	8e/ 8an 8cc	.	8An/ 8c	8AA\	la	.	.
8DD\J 8D	8d/J 8f#X 8a	.	8F#X/ 8A	8D\	la	.	.
*	*	*	*	*	*Xij	*	*
=18	=18	=18	=18	=18	=18	=18	=18
*	*^	*	*	*	*	*	*
8GG\L 8G	8d/L 8g 8b	4rcyy	.	8G/ 8B	8GG\	la	.	.
*	*	*	*	*	*	*ij	*	*
16GG\L 16G	16d/L 16g 16b	.	.	16G/ 16B	16GG\	la	.	.
16GG\JJ 16G	16d/JJ 16g 16a#X	.	.	16G/ 16A#X	16GG\	la	.	.
8GG\ 8G	8d/ 8g 8b	8rcyy	.	8G/ 8B	8GG\	la	.	.
8BB\L 8B	16ee/LL	8g\	.	16e/LL	8BB\ 8G	la	.	.
.	16dd/JJ	.	.	16d/JJ	.	.	.	.
8AA\ 8A	8e/L 8an 8cc	4rcyy	.	8An/ 8c	8AA\	la	.	.
8DD\J 8D	8f#X/J 8a	.	.	8F#X/ 8A	8D\	la	.	.
*	*	*	*	*	*	*Xij	*	*
*	*v	*v	*	*	*	*	*	*
*	*	*	*v	*v	*	*	*
=19	=19	=19	=19	=19	=19	=19
8GG\ 8G	(16b/LL	.	2.r	.	.	.
.	16cc/	.	.	.	.	.
8D\L 8G 8B	16b/	.	.	.	.	.
.	16a/JJ	.	.	.	.	.
8D\ 8G 8B	8g/L)	.	.	.	.	.
8D\ 8A	8f#X'/	.	.	.	.	.
8D\ 8G 8B	8g'/	.	.	.	.	.
8D\J 8G 8B	8b'/J	.	.	.	.	.
!!LO:LB:g=original
=20	=20	=20	=20	=20	=20	=20
8D\L 8F#X 8A	(16a/LL	.	2.r	.	.	.
.	16g/	.	.	.	.	.
!	!LO:SIC:v:s=16f/	!	!	!	!	!
8D\J 8F# 8A	16f/	.	.	.	.	.
.	16e/JJ	.	.	.	.	.
8D\ 8F# 8A	8d/)	.	.	.	.	.
8r	8a/L 8cc	.	.	.	.	.
4r	8g/ 8b	.	.	.	.	.
.	8d/J 8a	.	.	.	.	.
=21	=21	=21	=21	=21	=21	=21
*	*	*	*^	*	*	*
8GG/L 8G	8d/L 8g 8b	.	8G/ 8B	8GG\	la	.	.
*	*	*	*	*	*ij	*	*
16GG/L 16G	16d/L 16g 16b	.	16G/ 16B	16GG\	la	.	.
16GG/JJ 16G	16d/JJ 16g 16a#X	.	16G/ 16A#X	16GG\	la	.	.
8GG/ 8G	8d/ 8g 8b	.	8G/ 8B	8GG\	la	.	.
8BB\L 8B	8d/L 8g 8dd	.	8G/ 8d	8BB\	la	.	.
8AA\ 8A	8e/ 8an 8cc	.	8An/ 8c	8AA\	la	.	.
8DD\J 8D	8d/J 8f#X 8a	.	8F#X/ 8A	8D\	la	.	.
*	*	*	*	*	*Xij	*	*
=22	=22	=22	=22	=22	=22	=22	=22
*	*^	*	*	*	*	*	*
8GG/L 8G	8d/L 8g 8b	4rcyy	.	8G/ 8B	8GG\	la	.	.
*	*	*	*	*	*	*ij	*	*
16GG/L 16G	16d/L 16g 16b	.	.	16G/ 16B	16GG\	la	.	.
16GG/JJ 16G	16d/JJ 16g 16a#X	.	.	16G/ 16A#X	16GG\	la	.	.
8GG/ 8G	8d/ 8g 8b	8rcyy	.	8G/ 8B	8GG\	la	.	.
8BB\L 8B	16ee/LL	8g\	.	16e/LL	8BB\	la	.	.
.	16dd/JJ	.	.	16d/JJ	.	.	.	.
8AA\ 8A	8e/L 8an 8cc	4rcyy	.	8An/ 8c	8AA\	la	.	.
8DD\J 8D	8f#X/J 8a	.	.	8F#X/ 8A	8D\	la	.	.
*	*	*	*	*	*	*Xij	*	*
*	*v	*v	*	*	*	*	*	*
*	*	*	*v	*v	*	*	*
!!LO:PB:g=original
=23	=23	=23	=23	=23	=23	=23
8GG\L 8G	(16b/LL	.	2.r	.	.	.
.	16cc/	.	.	.	.	.
8D\J 8G 8B	16b/	.	.	.	.	.
.	16a/JJ	.	.	.	.	.
8D\L 8G 8B	8g/L)	.	.	.	.	.
8D\ 8A	8f#X'/	.	.	.	.	.
8G\ 8B	8g'/	.	.	.	.	.
8C\J 8E 8A	(16b/L	.	.	.	.	.
.	16a/JJ)	.	.	.	.	.
=24	=24	=24	=24	=24	=24	=24
8D\L 8G 8B	8d'/L	.	2.r	.	.	.
8D\J 8A 8c	8f#X'/J	.	.	.	.	.
4D\ 4F#X 4c	(4a/	.	.	.	.	.
8G\ 8B	8g/)	.	.	.	.	.
16G\LL	(16g/LL	.	.	.	.	.
32A\L	32a/L	.	.	.	.	.
!LO:TX:b:i:t=d'al segno al fine\ne poi Trio.	!	!	!	!	!	!
32B\JJJ	32b/JJJ)	.	.	.	.	.
!!LO:PB:g=original
!LO:TX:t=[segno]	!LO:TX:t=[segno]	!	!LO:TX:t=[segno]	!	!	!
=25||	=25||	=25||	=25||	=25||	=25||	=25||
*>D	*>D	*	*>D	*	*	*
*k[b-]	*k[b-]	*	*k[b-]	*	*	*
*F:	*F:	*	*F:	*	*	*
!	!	!	!LO:TX:a:B:t=Trio.	!	!	!
8FF/ 8F	2.r	f	2.r	.	.	.
16F\LL 16A 16c	.	p	.	.	.	.
16F\JJ 16A 16c	.	.	.	.	.	.
*tremolo	*	*	*	*	*	*
8F\L 8A 8c	.	.	.	.	.	.
8F\ 8A 8c	.	.	.	.	.	.
8F\ 8A 8c	.	.	.	.	.	.
8F\J 8A 8c	.	.	.	.	.	.
*Xtremolo	*	*	*	*	*	*
=26	=26	=26	=26	=26	=26	=26
8F\L 8A 8c	4r	.	2.r	.	.	.
16F\L 16A 16c	.	.	.	.	.	.
16F\JJ 16A 16c	.	.	.	.	.	.
*tremolo	*	*	*	*	*	*
8F\L 8A 8c	4r	.	.	.	.	.
8F\ 8A 8c	.	.	.	.	.	.
8F\ 8A 8c	8r	.	.	.	.	.
8F\J 8A 8c	8cc\	.	.	.	.	.
*Xtremolo	*	*	*	*	*	*
!LO:TX:t=[segno]	!LO:TX:t=[segno]	!	!LO:TX:t=[segno]	!	!	!
=27||	=27||	=27||	=27||	=27||	=27||	=27||
*>E	*>E	*	*>E	*	*	*
!	!	!	!LO:TX:a:i:t=Solo.	!	!	!
8F\L 8A 8c	4.cc\ 4.ccc	.	4.c\	W ser-	.	.
16F\L 16A 16c	.	.	.	.	.	.
16F\JJ 16A 16c	.	.	.	.	.	.
8F\L 8A 8c	.	.	.	.	.	.
8F\J 8A 8c	16a\LL 16aa	.	(16A\LL	-cu	.	.
.	16f\JJ 16ff	.	16F\JJ)	.	.	.
8C\L 8E 8G 8c	8g\L 8gg	.	8G\	si	.	.
8C\J 8E 8G 8c	8cc\J	.	8C/	ju偶	.	.
=28	=28	=28	=28	=28	=28	=28
*rep	*	*	*	*	*	*
8F\L 8A 8c	4.f\ 4.ff	.	4.F\	nie	.	.
16F\L 16A 16c	.	.	.	.	.	.
16F\JJ 16A 16c	.	.	.	.	.	.
8F\L 8A 8c	.	.	.	.	.	.
8F\J 8A 8c	8a\L 8aa	.	8A\	prze-	.	.
8C\L 8E 8G 8c	8g\ 8gg	.	8G\	-ro-	.	.
8C\J 8E 8G 8c	8cc\J	.	8C/	-bi	.	.
*Xrep	*	*	*	*	*	*
!!LO:LB:g=original
=29	=29	=29	=29	=29	=29	=29
8F\L	8f'\L 8ff	.	8F\	Ko-	.	.
8A\J 8c	8a'\J 8aa	.	8A\	-cham	.	.
*rep	*	*	*	*	*	*
8F\L	4dd\ 4ddd	.	4d\	cie-	.	.
8A\J 8c	.	.	.	.	.	.
*Xrep	*	*	*	*	*	*
*rep	*	*	*	*	*	*
8F\L	4cc\ 4ccc	.	4c\	-bie	.	.
8A\J 8c	.	.	.	.	.	.
*Xrep	*	*	*	*	*	*
=30	=30	=30	=30	=30	=30	=30
8C\L	8ee'\L 8gg	.	8.G\	cho-	.	.
8c\J	(16ee\L 16gg	.	.	.	.	.
.	16ff\JJ) 16aa	.	16A\	-ce	.	.
8C\L	8ee'\L 8gg	.	8.G\L	bied-	.	.
8c\J	(16ee\L 16gg	.	.	.	.	.
.	16ff\JJ) 16aa	.	16A\Jk	.	.	.
8C/	8ee\L 8gg	.	8G\	-na,	.	.
8r	8cc\J	.	8r	.	.	.
=31	=31	=31	=31	=31	=31	=31
8FF/ 8F	4.cc\ 4.ccc	.	4.c\	Wier-	.	.
16F\LL 16A 16c	.	.	.	.	.	.
16F\JJ 16A 16c	.	.	.	.	.	.
8F\L 8A 8c	.	.	.	.	.	.
8F\J 8A 8c	16a\LL 16aa	.	16A\LL	-nym	.	.
.	16f\JJ 16ff	.	16F\JJ	.	.	.
8C\L 8E 8G 8c	8g\L 8gg	.	8G\	zaw-	.	.
8C\J 8E 8G 8c	8cc\J	.	8C/	-sze	.	.
=32	=32	=32	=32	=32	=32	=32
8F\L 8A 8c	4.f\ 4.ff	.	4.F\	b-	.	.
16F\L 16A 16c	.	.	.	.	.	.
16F\JJ 16A 16c	.	.	.	.	.	.
*tremolo	*	*	*	*	*	*
!LO:TX:t=P:problem=dwie kropki u g贸ry	!	!	!	!	!	!
8F'\L 8A 8c	.	.	.	.	.	.
8F'\J 8A 8c	8a\ 8aa	.	8A\	-d	.	.
!LO:TX:t=P:problem=dwie kropki u g贸ry	!	!	!	!	!	!
8C'\L 8E 8G 8c	8g\L 8gg	.	8G\	to-	.	.
8C'\J 8E 8G 8c	8cc\J	.	8C/	-bie,	.	.
*Xtremolo	*	*	*	*	*	*
!!LO:LB:g=original
=33	=33	=33	=33	=33	=33	=33
8F\L 8A 8c	8f\L 8ff	.	8F\	Ty	.	.
8BB-\J 8D 8G	8g\J 8gg	.	8G\	mi	.	.
8C\L	4c/ 4cc	.	4C/	w 偶y-	.	.
8F\J 8A	.	.	.	.	.	.
8C\L	4f/ 4ff	.	4F\	-ciu	.	.
8F\J 8A	.	.	.	.	.	.
=34	=34	=34	=34	=34	=34	=34
8C\L	8cc\L 8aa	.	8A\	b-	.	.
8c\J	8b-\J 8gg	.	8G\	-dziesz	.	.
8r	(4b-\ 4ee 4gg	.	4G\	jed-	.	.
8CC/L 8C	.	.	.	.	.	.
8FF/J 8F	8a\) 8ff	.	8F\	-na!	.	.
8r	8r	.	8r	.	.	.
=35:|!	=35:|!	=35:|!	=35:|!	=35:|!;	=35:|!;	=35:|!;
*>F	*>F	*	*>F	*	*	*
8C\L	8cc\L	f	2.r	.	.	.
8E\J 8G 8B- 8c	16r	.	.	.	.	.
.	32cc'\LL 32gg 32bb-	.	.	.	.	.
.	32cc'\JJJ 32gg 32bb-	.	.	.	.	.
*rep	*	*	*	*	*	*
8C\L	(16gg\LL 16bb-	.	.	.	.	.
.	16ff\) 16aa	.	.	.	.	.
8E\J 8G 8B- 8c	16ee'\ 16gg	.	.	.	.	.
.	16dd'\JJ 16ff	.	.	.	.	.
*Xrep	*	*	*	*	*	*
*rep	*	*	*	*	*	*
8C\L	16cc'\LL 16ee	.	.	.	.	.
.	16b-'\ 16dd	.	.	.	.	.
8E\J 8G 8B- 8c	16a'\ 16cc	.	.	.	.	.
.	16g'\JJ 16b-	.	.	.	.	.
*Xrep	*	*	*	*	*	*
!!LO:LB:g=original
=36	=36	=36	=36	=36	=36	=36
8F\L	(16f/LL 16a	.	2.r	.	.	.
.	16a/) 16cc	.	.	.	.	.
8A\J 8c	16cc'/ 16ff	.	.	.	.	.
.	16ff'/JJ 16aa	.	.	.	.	.
*rep	*	*	*	*	*	*
8F\L	4.aa\ 4.ccc	.	.	.	.	.
8A\J 8c	.	.	.	.	.	.
*Xrep	*	*	*	*	*	*
*rep	*	*	*	*	*	*
8F\L	.	.	.	.	.	.
8A\J 8c	8ff\ 8aa	.	.	.	.	.
*Xrep	*	*	*	*	*	*
=37	=37	=37	=37	=37	=37	=37
8C\L	8cc\L	.	2.r	.	.	.
8E\J 8G 8B- 8c	16r	.	.	.	.	.
.	32cc'\LL 32gg 32bb-	.	.	.	.	.
.	32cc'\JJJ 32gg 32bb-	.	.	.	.	.
*rep	*	*	*	*	*	*
8C\L	(16gg\LL 16bb-	.	.	.	.	.
.	16ff\) 16aa	.	.	.	.	.
8E\J 8G 8B- 8c	16ee'\ 16gg	.	.	.	.	.
.	16dd'\JJ 16ff	.	.	.	.	.
*Xrep	*	*	*	*	*	*
*rep	*	*	*	*	*	*
8C\L	16cc'\LL 16ee	.	.	.	.	.
.	16b-'\ 16dd	.	.	.	.	.
8E\J 8G 8B- 8c	16a'\ 16cc	.	.	.	.	.
.	16g'\JJ 16b-	.	.	.	.	.
*Xrep	*	*	*	*	*	*
=38	=38	=38	=38	=38	=38	=38
8F\L	(16a/LL	.	2.r	.	.	.
.	16g/	.	.	.	.	.
8A\J 8c	16f/	.	.	.	.	.
.	16g/JJ)	.	.	.	.	.
*rep	*	*	*	*	*	*
8F\L	4.f/	.	.	.	.	.
8A\J 8c	.	.	.	.	.	.
*Xrep	*	*	*	*	*	*
*rep	*	*	*	*	*	*
8F\L	.	.	.	.	.	.
8A\J 8c	8a/	.	.	.	.	.
*Xrep	*	*	*	*	*	*
!!LO:PB:g=original
=39	=39	=39	=39	=39	=39	=39
8C\L	8cc\L	.	2.r	.	.	.
8E\J 8G 8B- 8c	16r	.	.	.	.	.
.	32cc'\LL 32gg 32bb-	.	.	.	.	.
.	32cc'\JJJ 32gg 32bb-	.	.	.	.	.
*rep	*	*	*	*	*	*
8C\L	(16gg\LL 16bb-	.	.	.	.	.
.	16ff\) 16aa	.	.	.	.	.
8E\J 8G 8B- 8c	16ee'\ 16gg	.	.	.	.	.
.	16dd'\JJ 16ff	.	.	.	.	.
*Xrep	*	*	*	*	*	*
*rep	*	*	*	*	*	*
8C\L	16cc'\LL 16ee	.	.	.	.	.
.	16b-'\ 16dd	.	.	.	.	.
8E\J 8G 8B- 8c	16a'\ 16cc	.	.	.	.	.
.	16g'\JJ 16b-	.	.	.	.	.
*Xrep	*	*	*	*	*	*
=40	=40	=40	=40	=40	=40	=40
8F\L	(16f\LL 16a	.	2.r	.	.	.
.	16a\) 16cc	.	.	.	.	.
8A\J 8c	16cc'\ 16ff	.	.	.	.	.
.	16ff'\JJ 16aa	.	.	.	.	.
*rep	*	*	*	*	*	*
8F\L	4.ff\	.	.	.	.	.
8A\J 8c	.	.	.	.	.	.
*Xrep	*	*	*	*	*	*
*rep	*	*	*	*	*	*
8F\L	.	.	.	.	.	.
8A\J 8c	8ee\	.	.	.	.	.
*Xrep	*	*	*	*	*	*
=41	=41	=41	=41	=41	=41	=41
8BB-\L 8B-	8dd\L	.	2.r	.	.	.
16r	16r	.	.	.	.	.
32GG\LL 32G	32dd\LL 32gg 32bb-	.	.	.	.	.
32GG\JJJ 32G	32dd\JJJ 32gg 32bb-	.	.	.	.	.
8GG\L 8G	8dd\L 8gg 8bb-	.	.	.	.	.
8GG\ 8G	8dd\ 8gg 8bb-	.	.	.	.	.
8AA\ 8A	8cc\ 8dd 8ff#X 8aa	.	.	.	.	.
8BB-\J 8B-	8b-\J 8dd 8gg	.	.	.	.	.
!!LO:LB:g=original
=42	=42	=42	=42	=42	=42	=42
8C\L 8c	8cc'\L	.	2.r	.	.	.
8C\J 8c	(16cc\L 16aa	.	.	.	.	.
.	16b-\JJ) 16gg	.	.	.	.	.
8r	(4b-\ 4ee 4gg	.	.	.	.	.
8CC/L 8C	.	.	.	.	.	.
8FF/J 8F	8a\) 8ff	.	.	.	.	.
!	!LO:TX:b:i:t=D'al segno al fine \ne dacapo Polonez al fine \na poi la Coda	!	!	!	!	!
8r	8cc\	.	.	.	.	.
!!LO:PB:g=original
=43:|!	=43:|!	=43:|!	=43:|!	=43:|!	=43:|!	=43:|!
*>G	*>G	*	*>G	*	*	*
*k[]	*k[]	*	*k[]	*	*	*
*C:	*C:	*	*C:	*	*	*
*M3/8	*M3/8	*	*M3/8	*	*	*
!	!	!	!LO:TX:a:i:t=Coda	!	!	!
!	!	!	!LO:TX:a:i:t=Choro	!	!	!
8EE/ 8E	8e/ 8ee	f	8E\ 8e	hop	.	.
4EE/ 4E	4e^/ 4ee	.	4E\ 4e	hop	.	.
=44	=44	=44	=44	=44	=44	=44
8EE/ 8E	8e/ 8ee	.	8E\ 8e	hop	.	.
4EE/ 4E	4e^/ 4ee	.	4E\ 4e	hop	.	.
=45	=45	=45	=45	=45	=45	=45
*tremolo	*tremolo	*	*	*	*	*
8EE/L 8E	8e/L 8ee	.	8E\ 8e	hop	.	.
*	*	*	*	*ij	*	*
8EE/ 8E	8e/ 8ee	.	8E\ 8e	hop	.	.
8EE/J 8E	8e/J 8ee	.	8E\ 8e	hop	.	.
=46	=46	=46	=46	=46	=46	=46
8EE/L 8E	8e/L 8ee	.	8E\ 8e	hop	.	.
8EE/ 8E	8e/ 8ee	.	8E\ 8e	hop	.	.
8EE/J 8E	8e/J 8ee	.	8E\ 8e	hop	.	.
*	*Xtremolo	*	*	*	*	*
=47	=47	=47	=47	=47	=47	=47
8EE/L 8E	8e/L 8g#X 8b	.	8E\ 8G#X 8B	hop	.	.
8EE/ 8E	8e/ 8g# 8ee	.	8E\ 8G# 8e	hop	.	.
8EE/J 8E	8e/J 8g# 8b	.	8E\ 8G# 8B	hop	.	.
*	*	*	*	*Xij	*	*
!!LO:LB:g=original
=48	=48	=48	=48	=48	=48	=48
8AA\L 8A	16.a\LL 16.cc	.	4.r	.	.	.
.	32b\JJk 32dd	.	.	.	.	.
8AA\ 8A	8cc\L 8ee	.	.	.	.	.
8AA\J 8A	8a\J 8cc	.	.	.	.	.
=49	=49	=49	=49	=49	=49	=49
8EE/L 8E	16g#X/LL 16b	.	4.r	.	.	.
.	16e/	.	.	.	.	.
8EE/ 8E	16g#/ 16b	.	.	.	.	.
.	16e/J	.	.	.	.	.
8EE/J 8E	8g#/J 8b	.	.	.	.	.
=50	=50	=50	=50	=50	=50	=50
8AA\L 8A	16a/LL 16cc	.	4.r	.	.	.
.	16e/	.	.	.	.	.
8AA\ 8A	16a/ 16cc	.	.	.	.	.
.	16e/J	.	.	.	.	.
8AA\J 8A	8a/J 8cc	.	.	.	.	.
=51	=51	=51	=51	=51	=51	=51
8DD/L 8D	8d/L 8f#X 8a	.	8D\ 8F#X 8A	hop	.	.
*	*	*	*	*ij	*	*
8DD/ 8D	8d/ 8f# 8dd	.	8D\ 8F# 8d	hop	.	.
8DD/J 8D	8d/J 8f# 8a	.	8D\ 8F# 8A	hop	.	.
*	*	*	*	*Xij	*	*
=52	=52	=52	=52	=52	=52	=52
8GG\L 8G	16.g/LL 16.b	.	4.r	.	.	.
.	32a/JJk 32cc	.	.	.	.	.
8GG\ 8G	8b/L 8dd	.	.	.	.	.
8GG\J 8G	8g/J 8b	.	.	.	.	.
!!LO:LB:g=original
=53	=53	=53	=53	=53	=53	=53
8DD/L 8D	16f#X/LL 16a	.	4.r	.	.	.
.	16d/	.	.	.	.	.
8DD/ 8D	16f#/ 16a	.	.	.	.	.
.	16d/J	.	.	.	.	.
8DD/J 8D	8f#/J 8a	.	.	.	.	.
=54	=54	=54	=54	=54	=54	=54
8GG\L 8G	16g/LL 16b	.	4.r	.	.	.
.	16d/	.	.	.	.	.
8GG\ 8G	16g/ 16b	.	.	.	.	.
.	16d/J	.	.	.	.	.
8GG\J 8G	8g/J 8b	.	.	.	.	.
=55||	=55||	=55||	=55||	=55||	=55||	=55||
!LO:TX:t=P:problem=trzy kropki u g贸ry	!	!	!	!	!	!
8C'\L 8G	4.r	.	4.r	.	.	.
8C'\ 8G	.	.	.	.	.	.
8C'\J 8G	.	.	.	.	.	.
=56	=56	=56	=56	=56	=56	=56
8C\L 8G	4.r	.	4.r	.	.	.
8C\ 8G	.	.	.	.	.	.
8C\J 8G	.	.	.	.	.	.
=57	=57	=57	=57	=57	=57	=57
*	*	*	*clefF4	*	*	*
!	!	!	!LO:TX:a:i:t=Mszczyzni	!	!	!
8C\L 8E 8G	16g/LL	.	16G\	Da-	.	.
.	16a/J	.	16A\	-lej	.	.
8C\ 8E 8G	8g/	.	8G\	bra-	.	.
8C\J 8E 8G	8e/J	.	8E\	-cia	.	.
*Xtremolo	*	*	*	*	*	*
=58	=58	=58	=58	=58	=58	=58
8C\ 8F 8G	16d^/LL	.	16D\	偶wa-	.	.
.	16e/JJ	.	16E\	-wo	.	.
8C\L 8E 8G	8c/L	.	8C\	wko-	.	.
8C\J 8E 8G	8g/J	.	8G\	-o,	.	.
!!LO:LB:g=original
=59	=59	=59	=59	=59	=59	=59
*tremolo	*	*	*	*	*	*
8C\L 8E 8G	16g/LL	.	16G\	Hu-	.	.
.	16a/JJ	.	16A\	-czno,	.	.
8C\ 8E 8G	8e/L	.	8G\	sko-	.	.
8C\J 8E 8G	8c/J	.	8E\	-czno	.	.
*Xtremolo	*	*	*	*	*	*
=60	=60	=60	=60	=60	=60	=60
8C\ 8F 8G	16d^/LL	.	16D\	i	.	.
.	16e/JJ	.	16E\	we-	.	.
8C\L 8E 8G	8c/L	.	8C/	-so-	.	.
8C\J 8E 8G	8c/J	.	8C/	-o.	.	.
=61	=61	=61	=61	=61	=61	=61
*	*	*	*clefG2	*	*	*
!	!	!	!LO:TX:a:i:t=Kobiety	!	!	!
8AA\ 8A	16cc\LL	.	16cc\	Kej	.	.
.	16cc\JJ	.	16dd\	chop	.	.
8A\L 8c 8e	8cc\L	.	8cc\	do-	.	.
8A\J 8c 8e	8a\J	.	8a/	-bry	.	.
=62	=62	=62	=62	=62	=62	=62
8A^<\ 8B 8d 8e	16g#X/LL	.	16g#X/	z do-	.	.
.	16b/JJ	.	16b/	-br	.	.
8A\L 8c 8e	8a\L	.	8a/	偶o-	.	.
8A\J 8c 8e	8ee\J	.	8ee\	-n	.	.
!!LO:PB:g=original
=63	=63	=63	=63	=63	=63	=63
*tremolo	*	*	*	*	*	*
8A\L 8c 8e	16cc\LL	.	16cc\	Bie-	.	.
.	16dd\JJ	.	16dd\	-da	.	.
8A\ 8c 8e	8cc\L	.	8cc\	od	.	.
8A\J 8c 8e	8a\J	.	8a/	nich	.	.
*Xtremolo	*	*	*	*	*	*
=64	=64	=64	=64	=64	=64	=64
8A^\ 8B 8d 8e	16g#X/LL	.	16g#X/	poj-	.	.
.	16b/JJ	.	16b/	-dzie	.	.
8A\L 8c 8e	8a/L	.	8a/	stro-	.	.
8A\J 8c 8e	8a/J	.	8a/	-n.	.	.
=65||	=65||	=65||	=65||	=65||	=65||	=65||
*	*	*	*clefF4	*	*	*
!	!	!	!LO:TX:a:i:t=M.	!	!	!
8CC/ 8C	16gn\LL 16ggn	f	16G\	Graj-	.	.
.	16a\JJ 16aa	.	16A\	-cie	.	.
8C\L 8E 8G 8c	8g\L 8gg	.	8G\	wic	.	.
8C\J 8E 8G 8c	8e\J 8ee	.	8E\	jak	.	.
=66	=66	=66	=66	=66	=66	=66
8C\ 8F 8G 8B	16d/LL 16dd	.	16D\	w daw-	.	.
.	16e/JJ 16ee	.	16E\	-ne	.	.
8C\L 8E 8G	8c/L 8cc	.	8C\	cza-	.	.
8C\J 8E 8G	8g/J 8gg	.	8G\	-sy,	.	.
!!LO:LB:g=original
=67	=67	=67	=67	=67	=67	=67
*tremolo	*	*	*	*	*	*
8C\L 8E 8G 8c	16g\LL 16gg	.	16G\	Os-	.	.
.	16a\JJ 16aa	.	16A\	-tro	.	.
8C\ 8E 8G 8c	8g\L 8gg	.	8G\	skrzy-	.	.
8C\J 8E 8G 8c	8e\J 8ee	.	8E\	-pki	.	.
*Xtremolo	*	*	*	*	*	*
=68	=68	=68	=68	=68	=68	=68
8C\ 8F 8G 8B	16d/LL 16dd	.	16D\	szum-	.	.
.	16e/JJ 16ee	.	16E\	-no	.	.
8C\L 8E 8G	8c/L 8cc	.	8C/	ba-	.	.
8C\J 8E 8G	8c/J 8cc	.	8C/	-sy.	.	.
=69	=69	=69	=69	=69	=69	=69
*tremolo	*	*	*clefG2	*	*	*
!	!	!	!LO:TX:a:i:t=K.	!	!	!
8C\L 8E 8G	16gg\LL	p	16g/	Graj-	.	.
.	16aa\JJ	.	16a/	-cie	.	.
8C\ 8E 8G	8gg\L	.	8g/	wic	.	.
8C\J 8E 8G	8ee\J	.	8e/	jak	.	.
*Xtremolo	*	*	*	*	*	*
=70	=70	=70	=70	=70	=70	=70
8C\ 8F 8G 8B	16dd\LL	.	16d/	w daw-	.	.
.	16ee\JJ	.	16e/	-ne	.	.
8C\L 8E 8G 8c	8cc\L	.	8c/	cza-	.	.
8C\J 8E 8G 8c	8ggT\J	.	8g/	-sy,	.	.
!!LO:LB:g=original
=71	=71	=71	=71	=71	=71	=71
*tremolo	*	*	*	*	*	*
8C\L 8E 8G 8c	16gg\LL	.	16g/	Os-	.	.
.	16aa\JJ	.	16a/	-tro	.	.
8C\ 8E 8G 8c	8gg\L	.	8g/	skrzy-	.	.
8C\J 8E 8G 8c	8ee\J	.	8e/	-pki	.	.
*Xtremolo	*	*	*	*	*	*
=72	=72	=72	=72	=72	=72	=72
8C\ 8F 8G 8B	16dd\LL	.	16d/	szum-	.	.
.	16ee\JJ	.	16e/	-no	.	.
8C\L 8E 8G 8c	8cc\L	.	8c/	ba-	.	.
8C\J 8E 8G 8c	8cc\J	.	8c/	-sy	.	.
*	*	*	*clefF4	*	*	*
=73	=73	=73	=73	=73	=73	=73
*tremolo	*	*	*	*	*	*
!	!	!	!LO:TX:a:i:t=M.	!	!	!
8EE/L 8E	8e/L 8g#X 8b	f	8E\ 8G#X 8B	hop	.	.
*	*	*	*	*ij	*	*
8EE/ 8E	8e/ 8g# 8ee	.	8E\ 8G# 8e	hop	.	.
8EE/J 8E	8e/J 8g# 8b	.	8E\ 8G# 8B	hop	.	.
*	*	*	*	*Xij	*	*
=74	=74	=74	=74	=74	=74	=74
8AA\L 8A	16.a/LL 16.cc	.	4.r	.	.	.
.	32b/JJk 32dd	.	.	.	.	.
8AA\ 8A	8cc\L 8ee	.	.	.	.	.
8AA\J 8A	8a\J 8cc	.	.	.	.	.
=75	=75	=75	=75	=75	=75	=75
8EE/L 8E	16g#X/LL 16b	.	4.r	.	.	.
.	16e/	.	.	.	.	.
8EE/ 8E	16g#/ 16b	.	.	.	.	.
.	16e/J	.	.	.	.	.
8EE/J 8E	8g#/J 8b	.	.	.	.	.
!!LO:LB:g=original
=76	=76	=76	=76	=76	=76	=76
8AA\L 8A	16a/LL 16cc	.	4.r	.	.	.
.	16e/	.	.	.	.	.
8AA\ 8A	16a/ 16cc	.	.	.	.	.
.	16e/J	.	.	.	.	.
8AA\J 8A	8a/J 8cc	.	.	.	.	.
=77	=77	=77	=77	=77	=77	=77
8DD/L 8D	8d/L 8f#X 8a	.	8D\ 8F#X 8A	hop	.	.
*	*	*	*	*ij	*	*
8DD/ 8D	8d/ 8f# 8dd	.	8D\ 8F# 8d	hop	.	.
8DD/J 8D	8d/J 8f# 8a	.	8D\ 8F# 8A	hop	.	.
*	*	*	*	*Xij	*	*
=78	=78	=78	=78	=78	=78	=78
8GG\L 8G	16.g/LL 16.b	.	4.r	.	.	.
.	32a/JJk 32cc	.	.	.	.	.
8GG\ 8G	8b/L 8dd	.	.	.	.	.
8GG\J 8G	8g/J 8b	.	.	.	.	.
=79	=79	=79	=79	=79	=79	=79
8DD/L 8D	16f#X/LL 16a	.	4.r	.	.	.
.	16d/	.	.	.	.	.
8DD/ 8D	16f#/ 16a	.	.	.	.	.
.	16d/J	.	.	.	.	.
8DD/J 8D	8f#/J 8a	.	.	.	.	.
=80	=80	=80	=80	=80	=80	=80
8GG\L 8G	16g/LL 16b	.	4.r	.	.	.
.	16d/	.	.	.	.	.
8GG\ 8G	16g/ 16b	.	.	.	.	.
.	16d/J	.	.	.	.	.
!LO:TX:a:i:t=V&colon; S&colon;	!	!	!	!	!	!
8GG\J 8G	8g/J 8b	.	.	.	.	.
!!LO:PB:g=original
=81	=81	=81	=81	=81	=81	=81
8C\L 8E 8G	16g\LL 16gg	f	4.ryy	.	.	.
.	16a\J 16aa	.	.	.	.	.
8C\ 8E 8G	8g\ 8gg	.	.	.	.	.
8C\J 8E 8G	8e\J 8ee	.	.	.	.	.
*Xtremolo	*	*	*	*	*	*
=82	=82	=82	=82	=82	=82	=82
8C\ 8F 8G 8B	16d/LL 16dd	.	4.ryy	.	.	.
.	16e/JJ 16ee	.	.	.	.	.
8C\L 8E 8G	8c/L 8cc	.	.	.	.	.
8C\J 8E 8G	8g/J 8gg	.	.	.	.	.
=83	=83	=83	=83	=83	=83	=83
*tremolo	*	*	*	*	*	*
8C\L 8E 8G	16g\LL 16gg	.	4.ryy	.	.	.
.	16a\JJ 16aa	.	.	.	.	.
8C\ 8E 8G	8g\L 8gg	.	.	.	.	.
8C\J 8E 8G	8e\J 8ee	.	.	.	.	.
*Xtremolo	*	*	*	*	*	*
=84	=84	=84	=84	=84	=84	=84
8C\ 8E 8F 8G 8B	16d/LL 16dd	.	4.ryy	.	.	.
.	16e/JJ 16ee	.	.	.	.	.
4C\ 4E 4G	4c/ 4cc	.	.	.	.	.
=85	=85	=85	=85	=85	=85	=85
*tremolo	*	*	*	*	*	*
8C\L 8E 8G	16g\LL 16gg	.	4.ryy	.	.	.
.	16a\JJ 16aa	.	.	.	.	.
8C\ 8E 8G	8g\L 8gg	.	.	.	.	.
8C\J 8E 8G	8e\J 8ee	.	.	.	.	.
*Xtremolo	*	*	*	*	*	*
=86	=86	=86	=86	=86	=86	=86
8C\ 8F 8G 8B	16d\LL 16dd	.	4.ryy	.	.	.
.	16e\JJ 16ee	.	.	.	.	.
8C\L 8E 8G	8c/L 8cc	.	.	.	.	.
8C\J 8E 8G|	8g/J 8gg|>	.	.	.	.	.
!!LO:LB:g=original
=87	=87	=87	=87	=87	=87	=87
*tremolo	*	*	*	*	*	*
8C\L 8E 8G	16g\LL 16gg	.	4.ryy	.	.	.
.	16a\JJ 16aa	.	.	.	.	.
8C\ 8E 8G	8g\L 8gg	.	.	.	.	.
8C\J 8E 8G	8e\J 8ee	.	.	.	.	.
*Xtremolo	*	*	*	*	*	*
=88	=88	=88	=88	=88	=88	=88
8C\ 8F 8G 8B	16d/LL 16dd	.	4.ryy	.	.	.
.	16e/JJ 16ee	.	.	.	.	.
16C\ 16E 16G	16c/ 16cc	.	.	.	.	.
(32D\LLL	(32dd\LLL	.	.	.	.	.
32E\	32ee\	.	.	.	.	.
32F\	32ff\	.	.	.	.	.
32G\	32gg\	.	.	.	.	.
32A\	32aa\	.	.	.	.	.
32B\JJJ	32bb\JJJ	.	.	.	.	.
=89	=89	=89	=89	=89	=89	=89
8c\L)	8ccc\)	.	4.ryy	.	.	.
8E\ 8e	16cc'\LL 16ee 16gg 16ccc	.	.	.	.	.
.	16cc'\ 16ee 16gg 16ccc	.	.	.	.	.
8C\J 8c	16cc'\ 16ee 16gg 16ccc	.	.	.	.	.
.	16cc'\JJ 16ee 16gg 16ccc	.	.	.	.	.
=90	=90	=90	=90	=90	=90	=90
8AA\L 8A	8cc\ 8ee 8aa 8ccc	.	4.ryy	.	.	.
*	*tremolo	*	*	*	*	*
!	!LO:TX:t=P:problem=cztery kropki u g贸ry	!	!	!	!	!
8C\ 8c	16cc'\LL 16ee 16aa 16ccc	.	.	.	.	.
.	16cc'\ 16ee 16aa 16ccc	.	.	.	.	.
8AA\J 8A	16cc'\ 16ee 16aa 16ccc	.	.	.	.	.
.	16cc'\JJ 16ee 16aa 16ccc	.	.	.	.	.
=91	=91	=91	=91	=91	=91	=91
*tremolo	*	*	*	*	*	*
8FF#X/L 8F#X	8dd\ 8aa 8ccc	.	4.ryy	.	.	.
!	!LO:TX:t=P:problem=cztery kropki u g贸ry	!	!	!	!	!
8FF#/ 8F#	16dd'\LL 16aa 16ccc	.	.	.	.	.
.	16dd'\ 16aa 16ccc	.	.	.	.	.
8FF#/J 8F#	16dd'\ 16aa 16ccc	.	.	.	.	.
.	16dd'\JJ 16aa 16ccc	.	.	.	.	.
*	*Xtremolo	*	*	*	*	*
!!LO:LB:g=original
=92	=92	=92	=92	=92	=92	=92
8GG/L 8G	8ee\L 8gg 8ccc	.	4.ryy	.	.	.
8GG/ 8G	8ee\ 8gg 8ccc	.	.	.	.	.
8GG/J 8G	8dd\J 8gg 8bb	.	.	.	.	.
=93	=93	=93	=93	=93	=93	=93
16C\LL 16c	8ee\ 8gg 8ccc	.	4.ryy	.	.	.
16D\JJ 16d	.	.	.	.	.	.
*	*tremolo	*	*	*	*	*
!	!LO:TX:t=P:problem=cztery kropki u g贸ry	!	!	!	!	!
8E\L 8e	16ee'\LL 16gg 16ccc	.	.	.	.	.
.	16ee'\ 16gg 16ccc	.	.	.	.	.
8C\J 8c	16ee'\ 16gg 16ccc	.	.	.	.	.
.	16ee'\JJ 16gg 16ccc	.	.	.	.	.
=94	=94	=94	=94	=94	=94	=94
16AA\LL 16A	8cc\ 8ee 8aa 8ccc	.	4.ryy	.	.	.
16BB\JJ 16B	.	.	.	.	.	.
!	!LO:TX:t=P:problem=cztery kropki u g贸ry	!	!	!	!	!
8C\L 8c	16cc'\LL 16ee 16aa 16ccc	.	.	.	.	.
.	16cc'\ 16ee 16aa 16ccc	.	.	.	.	.
8AA\J 8A	16cc'\ 16ee 16aa 16ccc	.	.	.	.	.
.	16cc'\JJ 16ee 16aa 16ccc	.	.	.	.	.
=95	=95	=95	=95	=95	=95	=95
16FF#X/LL 16F#X	8dd\ 8aa 8ccc	.	4.ryy	.	.	.
16GG/JJ 16G	.	.	.	.	.	.
8AA/L 8A	16dd\LL 16aa 16ccc	.	.	.	.	.
.	16dd\ 16aa 16ccc	.	.	.	.	.
8FF#/J 8F#	16dd\ 16aa 16ccc	.	.	.	.	.
.	16dd\JJ 16aa 16ccc	.	.	.	.	.
*	*Xtremolo	*	*	*	*	*
=96	=96	=96	=96	=96	=96	=96
8GG/L 8G	8ee\L 8gg 8ccc	.	4.ryy	.	.	.
8GG/ 8G	8ee\ 8gg 8ccc	.	.	.	.	.
8GG/J 8G	8dd\J 8gg 8bb	.	.	.	.	.
*Xtremolo	*	*	*	*	*	*
!!LO:LB:g=original
=97!|:	=97!|:	=97!|:	=97!|:	=97!|:	=97!|:	=97!|:
8C\ 8E 8G	16ee\ 16gg 16ccc	.	4.ryy	.	.	.
.	16ee'\LL	.	.	.	.	.
4C\ 4E 4G	(16gg\	.	.	.	.	.
.	16ff#X\	.	.	.	.	.
.	16aa\	.	.	.	.	.
.	16gg\JJ)	.	.	.	.	.
=98	=98	=98	=98	=98	=98	=98
*rep	*	*	*	*	*	*
8C\ 8E 8G	16cc'\LL	.	4.ryy	.	.	.
.	16ee'\	.	.	.	.	.
4C\ 4E 4G	(16gg\	.	.	.	.	.
.	16ff#X\	.	.	.	.	.
.	16aa\	.	.	.	.	.
.	16gg\JJ)	.	.	.	.	.
*Xrep	*	*	*	*	*	*
=99	=99	=99	=99	=99	=99	=99
*rep	*	*	*	*	*	*
8C\ 8E 8G	16cc'\LL	.	4.ryy	.	.	.
.	16ee'\	.	.	.	.	.
4C\ 4E 4G	(16gg\	.	.	.	.	.
.	16ff#X\	.	.	.	.	.
.	16aa\	.	.	.	.	.
.	16gg\JJ)	.	.	.	.	.
*Xrep	*	*	*	*	*	*
=100	=100	=100	=100	=100	=100	=100
8C\ 8F 8G 8B	(16dd\LL	.	4.ryy	.	.	.
.	16ee\JJ)	.	.	.	.	.
4C\ 4E 4G 4c	4cc\	.	.	.	.	.
=101:|!	=101:|!	=101:|!	=101:|!	=101:|!	=101:|!	=101:|!
8C\ 8F 8G 8B	(16dd\LL	.	4.ryy	.	.	.
.	16ee\JJ)	.	.	.	.	.
8C\L 8E 8G 8c	8cc\L	.	.	.	.	.
8C\J 8E 8G 8c	8ggT\J	.	.	.	.	.
!!LO:PB:g=original
=102	=102	=102	=102	=102	=102	=102
8C\ 8F 8G 8B	16dd\LL	.	4.ryy	.	.	.
.	16ee\JJ	.	.	.	.	.
4C\ 4E 4G 4c	4cc\	.	.	.	.	.
=103	=103	=103	=103	=103	=103	=103
8C\ 8F 8G 8B	(16dd\LL	.	4.ryy	.	.	.
.	16ee\JJ)	.	.	.	.	.
8C\L 8E 8G 8c	8cc'\L	.	.	.	.	.
8C\J 8E 8G 8c	(16aa\L	.	.	.	.	.
.	16gg\JJ)	.	.	.	.	.
=104	=104	=104	=104	=104	=104	=104
!	!LO:TUP:a:problem=klamra ukowa	!	!	!	!	!
8C\ 8F 8G 8B	24dd\LL	.	4.ryy	.	.	.
.	24ff\	.	.	.	.	.
.	24ee\JJ	.	.	.	.	.
[4C\ [4E [4G [4c	4cc\	.	.	.	.	.
=105	=105	=105	=105	=105	=105	=105
8C\] 8E] 8G] 8c]	8cc\L	.	4.ryy	.	.	.
8c\L	8ccc\	.	.	.	.	.
8G\J	8gg\J	.	.	.	.	.
=106	=106	=106	=106	=106	=106	=106
8E\L	8ee\L	.	4.ryy	.	.	.
8G\	8gg\	.	.	.	.	.
8E\J	8ee\J	.	.	.	.	.
=107	=107	=107	=107	=107	=107	=107
8C\L	8cc\L	.	4.ryy	.	.	.
8e\	8eee\	.	.	.	.	.
8c\J	8ccc\J	.	.	.	.	.
!!LO:LB:g=original
=108	=108	=108	=108	=108	=108	=108
8G\L	8gg\L	.	4.ryy	.	.	.
8c\	8ccc\	.	.	.	.	.
8G\J	8gg\J	.	.	.	.	.
=109	=109	=109	=109	=109	=109	=109
8E\L	8ee\L	.	4.ryy	.	.	.
8g\	8ggg\	.	.	.	.	.
8e\J	8eee\J	.	.	.	.	.
=110	=110	=110	=110	=110	=110	=110
8c\L	8ccc\L	.	4.ryy	.	.	.
8e\	8eee\	.	.	.	.	.
8c\J	8ccc\J	.	.	.	.	.
=111	=111	=111	=111	=111	=111	=111
8G\L	8gg\L	.	4.ryy	.	.	.
8c\	8ccc\	.	.	.	.	.
8G\J	8gg\J	.	.	.	.	.
=112	=112	=112	=112	=112	=112	=112
8E\L	8ee\L	.	4.ryy	.	.	.
8G\	8gg\	.	.	.	.	.
8E\J	8ee\J	.	.	.	.	.
=113	=113	=113	=113	=113	=113	=113
8C/	8cc\	.	4.ryy	.	.	.
8r	8r	.	.	.	.	.
8r	8r	.	.	.	.	.
!!LO:LB:g=original
=114	=114	=114	=114	=114	=114	=114
8GG/ 8D 8G	8dd\ 8ff 8gg 8bb	.	4.ryy	.	.	.
8r	8r	.	.	.	.	.
8r	8r	.	.	.	.	.
=115	=115	=115	=115	=115	=115	=115
8C\ 8E 8G	8cc\ 8ee 8gg 8ccc	.	4.ryy	.	.	.
8r	8r	.	.	.	.	.
8r	8r	.	.	.	.	.
=116	=116	=116	=116	=116	=116	=116
8GG/ 8D 8G	8gg\ 8bb 8ggg	.	4.ryy	.	.	.
8r	8r	.	.	.	.	.
8r	8r	.	.	.	.	.
=117	=117	=117	=117	=117	=117	=117
8C\ 8E 8G	8cc\ 8ccc	.	4.ryy	.	.	.
8r	8r	.	.	.	.	.
8r	8r	.	.	.	.	.
==	==	==	==	==	==	==
*-	*-	*-	*-	*-	*-	*-
!!!system-decoration: s1[(s2,s3)]
!!!RDF**kern: > = above
!!!RDF**kern: < = below
!!!RDF**kern: | = vertical stroke
!!!ENC: Mateusz Solarz
!!!END: 2021-05-20
